X:1
T:Title
%%score { ( 1 4 ) | ( 2 3 ) }
L:1/8
M:6/8
K:F
V:1 treble nm="Grand Piano"
V:4 treble 
V:2 bass 
V:3 bass 
V:1
 z3 z2[Q:1/4=84] F/G/ | A_A=A cBA | [EG]3- [EG]2 [EG]/[FA]/ | [GB][^FA][GB] [Bd][Ac][GB] | %4
[M:5/8] A-A- A3 |[M:1/8] F/G/ |[M:3/4] A_A =Ac =Bc | [DB]4- [DB][Fd] | %8
 [Fc][CFA] [A,F] [CFA]2 [B,EG] |[M:5/8] [A,F]-[A,F]- [A,F]3 |[M:1/8] A/B/ | %11
[M:3/4] [CAc]2 [CFA] [^Fd]2 [FA] | [GB]4- [GB].G | [EB][FA] [EG][Ec] [Ec][EG] | %14
[M:5/8] [FA]-[FA]- [FA]3 |[M:1/8] A/B/ |[M:3/4] [CAc]2 [CFA] [^Fd]2 [FA] | [GB]6 | %18
 [CFA]2 [B,FG] [A,F]2 [G,CE] |[M:5/8] [F,A,CF]-[F,A,CF]- [F,A,CF]3 |] %20
V:2
 z3 z2 [F,A,C]/[F,B,C]/ | z3[K:treble] .[A,F]3[K:bass] | [C,C]3- [C,C]2 [C,C] | %3
 [C,C][C,C][C,C] [C,C][D,C][E,C] |[M:5/8] [F,CF]-[F,CF]- [F,CF]3 |[M:1/8] [F,C]/-[F,B,C]/ | %6
[M:3/4] [F,CF][F,=B,F] [F,CF][F,A,F] [F,_A,F][F,=A,_E] | [B,,B,]4- [B,,B,][B,,B,] | %8
 [C,A,]C, C, C,2 C, |[M:5/8] F,-F,- F,3 |[M:1/8][K:treble] F/G/ | %11
[M:3/4][K:bass] F,2 _E, [D,A,]2 [D,D] | [G,D]2 G, G,2 E,/D,/ | [C,C][C,C] [C,C][C,B,] [C,G,][C,C] | %14
[M:5/8] [F,C]2 F, F,2 |[M:1/8][K:treble] F/G/ |[M:3/4][K:bass] F,2 _E, [D,A,]2 [D,D] | %17
 [G,D]2 G, G,2 G,,/G,,/ | A,,2 B,, C,2 C, |[M:5/8] F,,-F,,- F,,3 |] %20
V:3
 x6 | [F,CF][F,=B,F][F,CF][K:treble] C-[G,CE][K:bass][F,CF] | x6 | x6 |[M:5/8] x5 |[M:1/8] A,/ z/ | %6
[M:3/4] x6 | x6 | x6 |[M:5/8] x5 |[M:1/8][K:treble] x |[M:3/4][K:bass] x6 | x6 | x6 |[M:5/8] x5 | %15
[M:1/8][K:treble] x |[M:3/4][K:bass] x6 | x6 | x6 |[M:5/8] x5 |] %20
V:4
 x6 | x6 | x6 | x6 |[M:5/8] x5 |[M:1/8] x |[M:3/4] x6 | x6 | x6 |[M:5/8] x5 |[M:1/8] x | %11
[M:3/4] x6 | z2 D D2 C/-[CFA]/ | x6 |[M:5/8] z2 C C2 |[M:1/8] x |[M:3/4] x6 | %17
 z2 D D2 [DGB]/[DGB]/ | x6 |[M:5/8] x5 |] %20

